X: 38726
T: Street Player, The
R: reel
M: 4/4
K: Dmajor
DFAd f3e|dcde fdAF|G2FG E3F|GBAG EDCE|
FD~D2 FA=cA|BG~G2 Bcde|faaf geAc|eddc dAFE|
DFAd f3e|dcde fdAF|G2FG E3F|GEED EDCE|
FD~D2 FA=cA|BG~G2 Bcde|faaf gecd|eddc d3e||
f2dc dfaf|gfed cdeg|afaf gfed|c2BG ABAG|
F3D FAB=c|BG~G2 Bcde|faaf geAc|eddc d3e|
f2dc dfaf|gfed cdeg|afaf gfed|c2BG ABAG|
FD~D2 FA=cA|BG~G2 Bcde|faaf gecd|eddc d3e||

